packages/dnb-ui-lib/assets/icons/login.svg

<svg width="16" height="16" viewBox="0 0 16 16" fill="none" xmlns="http://www.w3.org/2000/svg">
<path d="M4.77577 13.1336C4.77577 13.3812 4.8741 13.6186 5.04914 13.7936C5.22417 13.9686 5.46157 14.067 5.7091 14.067M5.7091 2.86702C5.46157 2.86702 5.22417 2.96536 5.04914 3.14039C4.8741 3.31542 4.77577 3.55282 4.77577 3.80035M11.2333 7.76699C11.2796 7.76699 11.3248 7.78074 11.3632 7.80649C11.4017 7.83225 11.4316 7.86884 11.4491 7.91162C11.4667 7.9544 11.4712 8.00144 11.462 8.04677C11.4528 8.0921 11.4303 8.13367 11.3974 8.1662C11.3646 8.19873 11.3227 8.22075 11.2773 8.22947C11.2319 8.23819 11.1849 8.23321 11.1423 8.21517C11.0997 8.19713 11.0635 8.16684 11.0381 8.12814C11.0128 8.08944 10.9995 8.04409 11 7.99783C10.9999 7.96717 11.0059 7.93679 11.0176 7.90845C11.0293 7.8801 11.0465 7.85435 11.0682 7.83266C11.0899 7.81098 11.1156 7.79379 11.144 7.7821C11.1723 7.7704 11.2027 7.76442 11.2333 7.7645M3.63333 6.59974L5.5 8.46639M5.5 8.46639L3.63333 10.333M5.5 8.46639H1M8.9993 14.9953L14.5993 14.1951C14.7105 14.1794 14.8123 14.124 14.8859 14.0392C14.9596 13.9543 15.0001 13.8458 15 13.7334V2.84898C15.0001 2.74211 14.9635 2.63845 14.8963 2.55533C14.8292 2.4722 14.7355 2.41464 14.631 2.39227L9.03103 1.01032C8.96297 0.995753 8.8925 0.996593 8.8248 1.01278C8.75711 1.02897 8.69389 1.0601 8.63978 1.10389C8.58567 1.14768 8.54204 1.20302 8.51209 1.26585C8.48214 1.32869 8.46662 1.39742 8.46668 1.46703V14.5336C8.46672 14.6004 8.48112 14.6665 8.50889 14.7273C8.53667 14.7881 8.57718 14.8422 8.62768 14.8859C8.67818 14.9297 8.73749 14.9621 8.80161 14.981C8.86572 14.9999 8.93314 15.0047 8.9993 14.9953Z" stroke="black" stroke-width="1.5" stroke-linecap="round" stroke-linejoin="round"/>
</svg>

<svg width="16" height="16" viewBox="0 0 16 16" fill="none" xmlns="http://www.w3.org/2000/svg"><path d="M4.776 13.134a.933.933 0 00.933.933m0-11.2a.933.933 0 00-.933.933m6.457 3.967a.233.233 0 11-.233.23.232.232 0 01.233-.232M3.633 6.6L5.5 8.466m0 0l-1.867 1.867M5.5 8.466H1m8 6.53l5.6-.8a.466.466 0 00.4-.463V2.85a.466.466 0 00-.369-.457l-5.6-1.382a.467.467 0 00-.564.457v13.067a.467.467 0 00.532.461z" stroke="#000" stroke-width="1.5" stroke-linecap="round" stroke-linejoin="round"/></svg>
